src/pages/screens/Techs/images/backend/Nginx.svg

<svg width="28" height="31" viewBox="0 0 28 31" fill="none" xmlns="http://www.w3.org/2000/svg">
<g clip-path="url(#clip0_2_492)">
<path d="M0.224656 23.2432C0.369031 23.4932 0.577609 23.6808 0.834422 23.8214L13.1896 30.7604C13.7032 31.0573 14.3289 31.0573 14.8263 30.7604L27.1817 23.8214C27.6952 23.5402 28 23.0087 28 22.4304V8.55245C28 7.97421 27.6952 7.44284 27.1817 7.16161L14.8263 0.222508C14.3129 -0.074495 13.6871 -0.074495 13.1896 0.222508L0.834531 7.16161C0.304828 7.44284 0 7.97421 0 8.55245V22.446C0 22.7274 0.0642031 22.9931 0.224656 23.2432Z" fill="#009639"/>
<path d="M10.0447 20.7895C10.0456 20.9929 10.0051 21.1945 9.92558 21.3826C9.84606 21.5707 9.72908 21.7416 9.58139 21.8855C9.43371 22.0293 9.25823 22.1432 9.0651 22.2207C8.87197 22.2981 8.665 22.3376 8.45614 22.3367C8.24729 22.3376 8.04034 22.2981 7.84722 22.2207C7.6541 22.1432 7.47864 22.0293 7.33096 21.8854C7.18329 21.7416 7.06632 21.5707 6.9868 21.3826C6.90729 21.1945 6.86681 20.9929 6.86769 20.7895V10.1779C6.86769 9.34953 7.62183 8.67754 8.66472 8.67754C9.41897 8.67754 10.3015 8.97444 10.831 9.61521L11.3123 10.1779L17.9554 17.9138V10.2091C17.9545 10.0057 17.995 9.8041 18.0745 9.61599C18.154 9.42789 18.271 9.25698 18.4187 9.11314C18.5664 8.96929 18.7418 8.85535 18.935 8.7779C19.1281 8.70045 19.3351 8.66102 19.5439 8.66188C19.7528 8.66103 19.9597 8.70048 20.1529 8.77793C20.346 8.85539 20.5214 8.96933 20.6691 9.11317C20.8168 9.25702 20.9338 9.42792 21.0133 9.61602C21.0928 9.80412 21.1333 10.0057 21.1324 10.2091V20.8208C21.1324 21.6491 20.3782 22.3211 19.3353 22.3211C18.5811 22.3211 17.6986 22.0242 17.1691 21.3834L10.0447 13.1003V20.7896V20.7895Z" fill="white"/>
</g>
<defs>
<clipPath id="clip0_2_492">
<rect width="28" height="31" fill="white"/>
</clipPath>
</defs>
</svg>

<svg width="28" height="31" fill="none" xmlns="http://www.w3.org/2000/svg"><g clip-path="url(#a)"><path d="M.225 23.243c.144.25.353.438.61.578l12.355 6.94c.513.296 1.139.296 1.636 0l12.356-6.94c.513-.28.818-.812.818-1.39V8.551c0-.578-.305-1.11-.818-1.39L14.826.222a1.615 1.615 0 0 0-1.636 0L.835 7.163c-.53.28-.835.812-.835 1.39v13.894c0 .281.064.547.225.797z" fill="#009639"/><path d="M10.045 20.79a1.506 1.506 0 0 1-.464 1.096 1.619 1.619 0 0 1-1.125.451 1.619 1.619 0 0 1-1.125-.452 1.506 1.506 0 0 1-.463-1.096V10.178c0-.828.754-1.5 1.797-1.5.754 0 1.637.296 2.166.937l.481.563 6.643 7.736v-7.705a1.506 1.506 0 0 1 .464-1.096 1.619 1.619 0 0 1 1.125-.451 1.62 1.62 0 0 1 1.125.451c.148.144.265.315.344.503.08.188.12.39.12.593v10.612c0 .828-.755 1.5-1.798 1.5-.754 0-1.636-.297-2.166-.938L10.045 13.1v7.69z" fill="#fff"/></g><defs><clipPath id="a"><path fill="#fff" d="M0 0h28v31H0z"/></clipPath></defs></svg>
